components/Common/Svg/svgs/compAndPhone.svg

<svg width="40" height="40" viewBox="0 0 40 40" fill="none" xmlns="http://www.w3.org/2000/svg">
<path fill-rule="evenodd" clip-rule="evenodd" d="M23.5 7.50001C23.5 7.36194 23.6119 7.25001 23.75 7.25001H36.25C36.3881 7.25001 36.5 7.36194 36.5 7.50001V32.5C36.5 32.6381 36.3881 32.75 36.25 32.75H23.75C23.6119 32.75 23.5 32.6381 23.5 32.5V7.50001ZM23.75 5.25001C22.5074 5.25001 21.5 6.25737 21.5 7.50001V32.5C21.5 33.7426 22.5074 34.75 23.75 34.75H36.25C37.4926 34.75 38.5 33.7426 38.5 32.5V7.50001C38.5 6.25737 37.4926 5.25001 36.25 5.25001H23.75ZM5 13.5C4.60218 13.5 4.22064 13.658 3.93934 13.9393C3.65804 14.2207 3.5 14.6022 3.5 15V26.25C3.5 26.6478 3.65804 27.0294 3.93934 27.3107C4.22064 27.592 4.60218 27.75 5 27.75H13.75H17.5C18.0523 27.75 18.5 28.1977 18.5 28.75C18.5 29.3023 18.0523 29.75 17.5 29.75H14.75V32.75H17.5C18.0523 32.75 18.5 33.1977 18.5 33.75C18.5 34.3023 18.0523 34.75 17.5 34.75H13.75H10C9.44772 34.75 9 34.3023 9 33.75C9 33.1977 9.44772 32.75 10 32.75H12.75V29.75H5C4.07174 29.75 3.1815 29.3813 2.52513 28.7249C1.86875 28.0685 1.5 27.1783 1.5 26.25V15C1.5 14.0717 1.86875 13.1815 2.52513 12.5251C3.1815 11.8688 4.07174 11.5 5 11.5H17.5C18.0523 11.5 18.5 11.9477 18.5 12.5C18.5 13.0523 18.0523 13.5 17.5 13.5H5ZM31.875 28.125C31.875 29.1605 31.0355 30 30 30C28.9645 30 28.125 29.1605 28.125 28.125C28.125 27.0895 28.9645 26.25 30 26.25C31.0355 26.25 31.875 27.0895 31.875 28.125Z" fill="#161616"/>
</svg>

<svg width="40" height="40" viewBox="0 0 40 40" fill="none" xmlns="http://www.w3.org/2000/svg"><path fill-rule="evenodd" clip-rule="evenodd" d="M23.5 7.5a.25.25 0 0 1 .25-.25h12.5a.25.25 0 0 1 .25.25v25a.25.25 0 0 1-.25.25h-12.5a.25.25 0 0 1-.25-.25v-25Zm.25-2.25A2.25 2.25 0 0 0 21.5 7.5v25a2.25 2.25 0 0 0 2.25 2.25h12.5a2.25 2.25 0 0 0 2.25-2.25v-25a2.25 2.25 0 0 0-2.25-2.25h-12.5ZM5 13.5A1.5 1.5 0 0 0 3.5 15v11.25a1.5 1.5 0 0 0 1.5 1.5h12.5a1 1 0 1 1 0 2h-2.75v3h2.75a1 1 0 1 1 0 2H10a1 1 0 1 1 0-2h2.75v-3H5a3.5 3.5 0 0 1-3.5-3.5V15A3.5 3.5 0 0 1 5 11.5h12.5a1 1 0 1 1 0 2H5Zm26.875 14.625a1.875 1.875 0 1 1-3.75 0 1.875 1.875 0 0 1 3.75 0Z" fill="#161616"/></svg>
